StripePaymentsUI/StripePaymentsUI/Resources/StripePaymentsUI.xcassets/Cards/stp_card_visa.imageset/icon-card-visa.svg

<svg fill="none" height="17" viewBox="0 0 26 17" width="26" xmlns="http://www.w3.org/2000/svg"><path d="m21.9574 1h-19.91485c-1.128068 0-2.04255.92432-2.04255 2.06452v11.87098c0 1.1402.914482 2.0645 2.04255 2.0645h19.91485c1.1281 0 2.0426-.9243 2.0426-2.0645v-11.87098c0-1.1402-.9145-2.06452-2.0426-2.06452z" fill="#fff"/><path d="m2.04255 1.25h19.91485c.9875 0 1.7926.80986 1.7926 1.81452v11.87098c0 1.0046-.8051 1.8145-1.7926 1.8145h-19.91485c-.98748 0-1.79255-.8099-1.79255-1.8145v-11.87098c0-1.00466.80507-1.81452 1.79255-1.81452z" stroke="#000" stroke-opacity=".2" stroke-width=".5"/><path d="m2.82577 6.94394c-.53427-.29619-1.14403-.5344-1.82577-.69971l.0286-.12874h2.79521c.37888.01342.68631.12865.78635.53557l.60747 2.92736.1861.88168 1.70143-4.34461h1.83709l-2.7308 6.36451h-1.83719zm7.46783 5.54286h-1.73735l1.08666-6.37131h1.73729zm6.298-6.21555-.2363 1.37581-.1571-.06766c-.3144-.12882-.7293-.25756-1.2942-.24395-.6859 0-.9935.27773-1.0006.54889 0 .29828.3721.49485.9797.78637 1.001.45413 1.4653 1.00987 1.4584 1.73519-.0141 1.3217-1.2009 2.1758-3.0238 2.1758-.7794-.0068-1.5302-.163-1.9376-.339l.2431-1.4303.2287.1018c.5648.2375.9365.3389 1.6301.3389.5002 0 1.0365-.1967 1.0434-.6235 0-.278-.2285-.4815-.9007-.79326-.6576-.30512-1.5369-.81339-1.5226-1.72849.0074-1.24031 1.2156-2.10785 2.9313-2.10785.672 0 1.2155.14234 1.5582.27125zm2.3091 3.95845h1.444c-.0714-.31858-.4004-1.84366-.4004-1.84366l-.1214-.54899c-.0858.2372-.2358.62358-.2286.60998 0 0-.5505 1.41661-.6936 1.78267zm2.1445-4.11421 1.4016 6.37121h-1.6086s-.1574-.732-.2073-.9557h-2.2306c-.0645.1693-.3646.9557-.3646.9557h-1.823l2.5806-5.84258c.1788-.4135.4937-.52863.9081-.52863z" fill="#1434cb"/></svg>

<svg width="26" height="17" viewBox="0 0 26 17" fill="none" xmlns="http://www.w3.org/2000/svg">
<path d="M21.9574 1H2.04255C0.914482 1 0 1.92432 0 3.06452V14.9355C0 16.0757 0.914482 17 2.04255 17H21.9574C23.0855 17 24 16.0757 24 14.9355V3.06452C24 1.92432 23.0855 1 21.9574 1Z" fill="white"/>
<path d="M2.04255 1.25H21.9574C22.9449 1.25 23.75 2.05986 23.75 3.06452V14.9355C23.75 15.9401 22.9449 16.75 21.9574 16.75H2.04255C1.05507 16.75 0.25 15.9401 0.25 14.9355V3.06452C0.25 2.05986 1.05507 1.25 2.04255 1.25Z" stroke="black" stroke-opacity="0.2" stroke-width="0.5"/>
<path d="M2.82577 6.94394C2.2915 6.64775 1.68174 6.40954 1 6.24423L1.0286 6.11549H3.82381C4.20269 6.12891 4.51012 6.24414 4.61016 6.65106L5.21763 9.57842L5.40373 10.4601L7.10516 6.11549H8.94225L6.21145 12.48H4.37426L2.82577 6.94394ZM10.2936 12.4868H8.55625L9.64291 6.11549H11.3802L10.2936 12.4868ZM16.5916 6.27125L16.3553 7.64706L16.1982 7.5794C15.8838 7.45058 15.4689 7.32184 14.904 7.33545C14.2181 7.33545 13.9105 7.61318 13.9034 7.88434C13.9034 8.18262 14.2755 8.37919 14.8831 8.67071C15.8841 9.12484 16.3484 9.68058 16.3415 10.4059C16.3274 11.7276 15.1406 12.5817 13.3177 12.5817C12.5383 12.5749 11.7875 12.4187 11.3801 12.2427L11.6232 10.8124L11.8519 10.9142C12.4167 11.1517 12.7884 11.2531 13.482 11.2531C13.9822 11.2531 14.5185 11.0564 14.5254 10.6296C14.5254 10.3516 14.2969 10.1481 13.6247 9.83634C12.9671 9.53122 12.0878 9.02295 12.1021 8.10785C12.1095 6.86754 13.3177 6 15.0334 6C15.7054 6 16.2489 6.14234 16.5916 6.27125ZM18.9007 10.2297H20.3447C20.2733 9.91112 19.9443 8.38604 19.9443 8.38604L19.8229 7.83705C19.7371 8.07425 19.5871 8.46063 19.5943 8.44703C19.5943 8.44703 19.0438 9.86364 18.9007 10.2297ZM21.0452 6.11549L22.4468 12.4867H20.8382C20.8382 12.4867 20.6808 11.7547 20.6309 11.531H18.4003C18.3358 11.7003 18.0357 12.4867 18.0357 12.4867H16.2127L18.7933 6.64412C18.9721 6.23062 19.287 6.11549 19.7014 6.11549H21.0452Z" fill="#1434CB"/>
</svg>
